packages/icons/src/emoji/svg/explosion.svg

<svg width="120" height="120" viewBox="0 0 120 120" fill="none" xmlns="http://www.w3.org/2000/svg">
<path d="M113.269 68.4188C110.363 67.4063 107.335 66.8156 104.382 65.9438C103.228 65.5969 101.85 65.3344 100.978 64.4438C98.7378 62.1375 103.322 60.4875 104.963 59.9344C105.994 59.5875 106.941 59.175 107.935 58.7344C108.91 58.2938 118.257 55.8563 114.778 53.7281C114.038 53.2781 113.128 53.2125 112.322 52.9594C110.353 52.35 108.338 51.9188 106.341 51.3938C104.457 50.8969 102.057 51.3094 100.435 50.025C97.2191 47.4938 102.01 43.9406 103.978 42.7031C105.113 41.9906 107.213 41.0438 107.222 39.4406C107.232 37.0406 103.922 37.6313 102.46 37.5281C100.435 37.3781 98.4003 37.2563 96.3753 37.0875C95.4378 37.0125 94.1535 36.825 93.4128 36.1969C92.466 35.4 93.5066 33.5906 93.8535 32.6906C94.8941 29.925 96.141 27.2438 97.4535 24.6C99.0285 21.4219 100.716 18.3 102.3 15.1219C103.097 13.5375 103.866 11.9344 104.588 10.3219C105.113 9.15 106.36 6.64687 104.663 5.89688C103.257 5.2875 101.766 6.45937 100.716 7.24687C100.247 7.59375 99.7972 7.94063 99.3378 8.29688C96.4691 10.5188 93.7128 12.8813 90.9847 15.2719C88.266 17.6625 85.5753 20.0906 82.8378 22.4625C82.1441 23.0625 81.4128 23.6438 80.5972 24.0844C79.491 24.6844 78.1128 24.975 77.3066 23.7656C76.4816 22.5281 76.4441 20.775 76.4066 19.3406C76.3597 17.4281 76.4816 15.5156 76.5847 13.6125C76.6597 12.2063 76.9785 10.6219 76.491 9.2625C75.7035 7.05 73.2378 7.92188 72.1972 9.30938C71.1003 10.7625 70.5378 12.5625 69.7128 14.1656C68.5785 16.3969 67.3691 18.6188 65.8691 20.6344C64.6503 22.275 63.1222 24.0375 61.1066 24.6844C59.016 25.3594 57.0941 24.2906 55.6785 22.7719C54.1597 21.1406 52.6878 19.4719 51.2441 17.775C48.8253 14.9344 46.491 12.0188 44.1472 9.10313C42.9847 7.65 41.8222 6.19688 40.6316 4.75313C39.8628 3.81563 38.616 2.1375 37.2378 2.24062C34.6878 2.44687 36.4691 8.39062 36.6566 9.75C37.0878 12.8531 37.3316 15.975 37.9878 19.0406C38.4285 21.1219 38.9441 23.175 39.3097 25.275C39.5347 26.5875 39.7691 29.0531 38.6066 30.0469C37.0316 31.3781 34.8847 29.325 33.6191 28.5562C32.7941 28.0594 32.0816 27.3938 31.2566 26.8875C27.741 24.7219 27.7222 28.3688 28.0035 30.9281C28.1722 32.5125 28.4066 33.7875 26.391 33.7031C24.7503 33.6281 23.1097 32.6906 21.5816 32.1562C19.6691 31.5 17.766 30.825 15.8628 30.1406C12.1503 28.8094 8.43784 27.4688 4.68784 26.2219C3.69409 25.8938 2.21284 26.4656 1.89409 27.5156C1.25659 29.6063 5.35346 33.5906 6.51596 35.0719C10.1253 39.6563 14.7566 43.2094 18.4316 47.7094C20.0253 49.6781 21.9753 52.6781 20.7753 55.2844C19.5566 57.9563 15.7785 59.2594 13.3222 60.5625C11.841 61.35 7.60346 63.3563 9.26284 65.6344C9.56283 66.0469 10.266 66.3375 10.7253 66.5344C11.466 66.8625 12.2722 67.0875 13.0597 67.2375C15.7503 67.7531 18.4878 67.9219 21.2066 68.2406C23.3722 68.4938 25.9785 69.525 25.5378 72.0844C25.0128 75.1594 22.191 78.0188 20.1847 80.2219C17.1378 83.5594 13.9316 86.7563 10.791 90C9.68471 91.1438 2.62534 96.9938 4.95034 98.7375C6.30971 99.7594 9.54408 98.3813 10.9972 98.0344C16.416 96.7313 21.8253 95.3625 27.1972 93.8719C28.6503 93.4688 30.1035 93.0469 31.5378 92.6063C35.5128 91.3781 40.5191 90.2344 41.1753 95.7656C41.541 98.7469 41.5035 101.756 41.7847 104.747C42.1503 108.497 41.9347 112.406 42.9285 116.044C43.5003 118.153 45.7503 118.153 47.0347 116.869C48.6378 115.266 49.4816 112.791 50.5035 110.794C51.741 108.356 52.8753 105.881 54.066 103.425C55.3972 100.659 56.8972 96.7125 59.9253 95.4094C62.9816 94.0969 65.0253 96.8906 66.816 98.8875C68.541 100.819 70.1066 102.9 71.9535 104.738C73.041 105.825 74.0535 107.128 75.4503 107.841C76.041 108.141 76.7535 108.356 77.2785 107.85C78.7691 106.397 78.3097 104.288 78.6753 102.441C79.266 99.4594 79.8753 95.8875 81.9097 93.5063C83.9722 91.1063 87.0003 92.25 89.5222 93.0844C93.1878 94.2938 96.8347 95.55 100.472 96.8531C102.516 97.5844 104.569 98.3063 106.594 99.0844C107.944 99.6 109.378 99.9 110.747 100.322C111.507 100.556 112.238 100.875 113.007 101.081C115.135 101.663 117.891 100.959 115.969 98.4375C114.46 96.45 112.228 94.95 110.428 93.2344C108.328 91.2469 106.257 89.2125 104.1 87.3C101.541 85.0313 98.6441 83.0063 96.9191 79.9781C96.2816 78.8719 95.2972 77.3156 96.0753 76.0406C96.9003 74.6719 99.2628 74.5875 100.65 74.2594C104.185 73.425 107.832 73.6031 111.432 73.4625C113.232 73.3969 115.819 73.5375 117.403 72.6188C120.253 70.9594 114.432 68.8313 113.269 68.4188Z" fill="#ED6C30"/>
<path d="M82.8379 63.4876C79.5848 63.9564 75.516 65.7376 76.9035 69.6657C77.8691 72.3939 80.316 74.372 82.1066 76.5376C82.6785 77.2314 83.6254 77.9251 83.3535 78.9189C83.1566 79.6501 82.491 79.6314 81.8535 79.472C79.6691 78.9189 77.5785 77.6907 75.6004 76.6595C72.8066 75.2064 69.6191 74.1657 66.666 75.797C63.7879 77.3814 62.4473 80.6157 60.6379 83.1751C59.5598 84.7126 57.8723 84.0001 57.3941 82.4626C56.5973 79.9689 56.6441 77.0251 54.0191 75.647C51.1598 74.1376 47.616 75.4876 44.7848 76.2657C43.3129 76.6689 40.8285 77.6626 39.366 76.8845C37.6035 75.9564 40.041 73.3407 40.6223 72.6564C42.6473 70.2564 44.7473 67.6876 45.8254 64.7064C47.2316 60.7876 44.1285 58.0314 41.391 55.7907C40.5566 55.1064 35.616 51.2907 37.9973 50.1376C39.5066 49.4064 41.841 50.2782 43.3691 50.597C45.3566 51.0001 47.4754 51.3751 49.4441 50.6439C53.4379 49.172 53.2035 44.4564 54.0191 41.0439C54.2254 40.172 54.3285 38.7095 55.1816 38.222C56.2316 37.6126 57.1316 38.5782 57.6004 39.4782C58.191 40.6407 58.5098 41.9157 59.0629 43.0876C59.9441 44.9814 61.0598 46.8657 62.9441 47.9064C66.891 50.0814 71.5691 47.3064 74.916 45.2345C75.7598 44.7095 76.6973 43.6689 77.6816 43.4907C78.6848 43.3126 78.7598 44.4657 78.5066 45.1782C78.2535 45.8626 77.9629 46.5657 77.7004 47.2501C76.7347 49.7814 75.6098 52.8001 77.0348 55.3782C78.1879 57.4595 80.4285 58.547 82.5754 59.3157C83.2879 59.5689 85.2848 59.8782 86.6535 60.4876C87.1316 60.7032 88.041 61.2845 88.0129 61.9126C87.9848 63.3001 83.8316 63.347 82.8379 63.4876Z" fill="#FCC21B"/>
</svg>

<svg xmlns="http://www.w3.org/2000/svg" fill="none" aria-hidden="true" data-slot="icon" viewBox="0 0 120 120"><path fill="#ED6C30" d="M113.269 68.419c-2.906-1.013-5.934-1.603-8.887-2.475-1.154-.347-2.532-.61-3.404-1.5-2.24-2.306 2.344-3.957 3.985-4.51 1.031-.346 1.978-.759 2.972-1.2.975-.44 10.322-2.878 6.843-5.006-.74-.45-1.65-.516-2.456-.769-1.969-.609-3.984-1.04-5.981-1.565-1.884-.497-4.284-.085-5.906-1.369-3.216-2.531 1.575-6.084 3.543-7.322 1.135-.712 3.235-1.66 3.244-3.262.01-2.4-3.3-1.81-4.762-1.913-2.025-.15-4.06-.272-6.085-.44-.937-.075-2.222-.263-2.962-.891-.947-.797.094-2.606.44-3.506 1.041-2.766 2.288-5.447 3.6-8.091 1.575-3.178 3.263-6.3 4.847-9.478a118 118 0 0 0 2.288-4.8c.525-1.172 1.772-3.675.075-4.425-1.406-.61-2.897.562-3.947 1.35-.469.347-.919.694-1.378 1.05-2.869 2.222-5.625 4.584-8.353 6.975-2.719 2.39-5.41 4.819-8.147 7.19-.694.6-1.425 1.182-2.24 1.622-1.107.6-2.485.891-3.291-.318-.825-1.238-.863-2.991-.9-4.425-.047-1.913.075-3.825.178-5.728.075-1.407.394-2.991-.094-4.35-.787-2.213-3.253-1.341-4.294.046-1.097 1.454-1.66 3.254-2.484 4.857-1.134 2.23-2.344 4.453-3.844 6.468-1.219 1.641-2.747 3.404-4.762 4.05-2.091.675-4.013-.393-5.428-1.912-1.52-1.631-2.991-3.3-4.435-4.997-2.419-2.84-4.753-5.756-7.097-8.672a376 376 0 0 0-3.515-4.35c-.77-.937-2.016-2.615-3.394-2.512-2.55.206-.769 6.15-.581 7.509.43 3.103.675 6.225 1.33 9.29.441 2.082.957 4.135 1.323 6.235.225 1.313.46 3.778-.703 4.772-1.575 1.331-3.722-.722-4.988-1.49-.825-.498-1.537-1.163-2.362-1.67-3.516-2.165-3.535 1.482-3.254 4.041.17 1.585.404 2.86-1.612 2.775-1.64-.075-3.281-1.012-4.81-1.547a413 413 0 0 1-5.718-2.015c-3.713-1.332-7.425-2.672-11.175-3.92-.994-.327-2.475.245-2.794 1.295-.637 2.09 3.46 6.075 4.622 7.556 3.61 4.584 8.24 8.137 11.916 12.637 1.593 1.97 3.543 4.97 2.343 7.575-1.218 2.672-4.996 3.975-7.453 5.279-1.481.787-5.719 2.793-4.06 5.071.3.413 1.004.704 1.463.9a10.8 10.8 0 0 0 2.335.703c2.69.516 5.428.685 8.147 1.004 2.165.253 4.772 1.284 4.33 3.843-.524 3.075-3.346 5.935-5.352 8.138-3.047 3.337-6.253 6.534-9.394 9.778-1.106 1.144-8.166 6.994-5.84 8.737 1.359 1.022 4.593-.356 6.046-.703 5.419-1.303 10.828-2.672 16.2-4.162 1.453-.403 2.907-.825 4.34-1.266 3.976-1.228 8.982-2.372 9.638 3.16.366 2.98.329 5.99.61 8.981.365 3.75.15 7.659 1.144 11.297.571 2.109 2.821 2.109 4.106.825 1.603-1.603 2.447-4.078 3.469-6.075 1.237-2.438 2.371-4.913 3.562-7.369 1.331-2.766 2.831-6.712 5.86-8.016 3.056-1.312 5.1 1.482 6.89 3.478 1.725 1.932 3.29 4.013 5.138 5.851 1.087 1.087 2.1 2.39 3.496 3.103.591.3 1.303.515 1.828.009 1.491-1.453 1.032-3.562 1.397-5.409.591-2.982 1.2-6.553 3.235-8.935 2.062-2.4 5.09-1.256 7.612-.422a457 457 0 0 1 10.95 3.77c2.044.73 4.097 1.452 6.122 2.23 1.35.516 2.784.816 4.153 1.238.76.234 1.491.553 2.26.759 2.128.582 4.884-.122 2.962-2.644-1.509-1.987-3.741-3.487-5.541-5.203-2.1-1.987-4.171-4.021-6.328-5.934-2.559-2.269-5.456-4.294-7.18-7.322-.638-1.106-1.623-2.662-.845-3.937.825-1.37 3.188-1.453 4.575-1.782 3.535-.834 7.182-.656 10.782-.796 1.8-.066 4.387.075 5.971-.844 2.85-1.66-2.971-3.788-4.134-4.2"/><path fill="#FCC21B" d="M82.838 63.488c-3.253.468-7.322 2.25-5.934 6.178.965 2.728 3.412 4.706 5.203 6.872.572.693 1.518 1.387 1.246 2.38-.196.732-.862.713-1.5.554-2.184-.553-4.274-1.781-6.253-2.812-2.793-1.454-5.98-2.494-8.934-.863-2.878 1.584-4.219 4.819-6.028 7.378-1.078 1.538-2.766.825-3.244-.712-.797-2.494-.75-5.438-3.375-6.816-2.86-1.51-6.403-.16-9.234.619-1.472.403-3.956 1.397-5.419.618-1.763-.928.675-3.543 1.256-4.228 2.025-2.4 4.125-4.968 5.203-7.95 1.407-3.918-1.697-6.675-4.434-8.915-.834-.685-5.775-4.5-3.394-5.653 1.51-.732 3.844.14 5.372.459 1.988.403 4.106.778 6.075.047 3.994-1.472 3.76-6.188 4.575-9.6.206-.872.31-2.334 1.163-2.822 1.05-.61 1.95.356 2.418 1.256.591 1.163.91 2.438 1.463 3.61.881 1.893 1.997 3.778 3.881 4.818 3.947 2.175 8.625-.6 11.972-2.672.844-.525 1.781-1.565 2.766-1.743 1.003-.178 1.078.975.825 1.687-.254.685-.544 1.388-.807 2.072-.965 2.531-2.09 5.55-.665 8.128 1.153 2.081 3.394 3.169 5.54 3.938.713.253 2.71.562 4.078 1.172.479.215 1.388.797 1.36 1.425-.028 1.387-4.181 1.434-5.175 1.575"/></svg>
